assets/images/icon-cube.svg

<?xml version="1.0" encoding="UTF-8"?> <svg xmlns="http://www.w3.org/2000/svg" width="71" height="71" viewBox="0 0 71 71" fill="none"><circle cx="35.7493" cy="35.5039" r="34.5" fill="white" stroke="#E9E9E9"></circle><g clip-path="url(#clip0)"><path d="M54.0071 45.7637C53.5974 45.7637 53.2649 46.0962 53.2649 46.5059C53.2649 46.9155 53.5974 47.248 54.0071 47.248C54.4168 47.248 54.7493 46.9155 54.7493 46.5059C54.7492 46.0962 54.4168 45.7637 54.0071 45.7637Z" fill="#C4C4C4"></path><path d="M35.7494 13.2559C35.3397 13.2559 35.0072 13.5884 35.0072 13.998C35.0072 14.4077 35.3397 14.7402 35.7494 14.7402C36.1591 14.7402 36.4916 14.4077 36.4916 13.998C36.4916 13.5884 36.1591 13.2559 35.7494 13.2559Z" fill="#C4C4C4"></path><path d="M17.4916 45.7637C17.0819 45.7637 16.7494 46.0962 16.7494 46.5059C16.7494 46.9155 17.0819 47.248 17.4916 47.248C17.9013 47.248 18.2338 46.9155 18.2338 46.5059C18.2338 46.0962 17.9013 45.7637 17.4916 45.7637Z" fill="#C4C4C4"></path><path d="M51.4493 44.3891L48.3665 42.4944V27.9994C48.3665 27.7218 48.2116 27.4674 47.965 27.34L36.4915 21.4132V16.9668C36.4915 16.5569 36.1592 16.2246 35.7494 16.2246C35.3395 16.2246 35.0072 16.5569 35.0072 16.9668V21.4132L23.5338 27.34C23.2871 27.4674 23.1322 27.7218 23.1322 27.9994V42.4944L20.0495 44.3892C19.7003 44.6038 19.5912 45.0609 19.8058 45.4101C19.946 45.6381 20.1894 45.7638 20.4388 45.7638C20.5714 45.7638 20.7055 45.7282 20.8267 45.6538L23.8771 43.7789L35.3487 51.1384C35.4707 51.2167 35.6101 51.2559 35.7494 51.2559C35.8892 51.2559 36.0289 51.2165 36.1513 51.1376L47.6216 43.7789L50.672 45.6538C50.7932 45.7283 50.9273 45.7638 51.0599 45.7638C51.3092 45.7638 51.5528 45.6381 51.6929 45.4101C51.9076 45.0608 51.7985 44.6038 51.4493 44.3891ZM35.0072 49.1557L25.281 42.916L32.3188 38.5904C32.6679 38.3757 32.7771 37.9186 32.5624 37.5694C32.3478 37.2202 31.8906 37.1112 31.5415 37.3258L24.6166 41.582V29.4205L35.0072 35.6452V49.1557ZM35.7494 34.3594L25.2989 28.0989L35.0072 23.084V30.7715C35.0072 31.1814 35.3395 31.5136 35.7494 31.5136C36.1592 31.5136 36.4915 31.1814 36.4915 30.7715V23.084L46.1999 28.0989L35.7494 34.3594ZM46.8822 41.582L39.9573 37.3257C39.6082 37.1111 39.1511 37.2202 38.9363 37.5694C38.7217 37.9186 38.8308 38.3757 39.18 38.5903L46.2177 42.9159L36.4915 49.1556V35.6451L46.8822 29.4205V41.582Z" fill="#C4C4C4"></path></g><defs><clipPath id="clip0"><rect width="38" height="38" fill="white" transform="translate(16.7493 13.2559)"></rect></clipPath></defs></svg>

<svg xmlns="http://www.w3.org/2000/svg" width="71" height="71" fill="none"><circle cx="35.749" cy="35.504" r="34.5" fill="#fff" stroke="#E9E9E9"/><g clip-path="url(#a)" fill="#C4C4C4"><path d="M54.007 45.764a.742.742 0 1 0 0 1.485.742.742 0 0 0 0-1.485ZM35.75 13.256a.742.742 0 1 0 0 1.485.742.742 0 0 0 0-1.485ZM17.492 45.764a.742.742 0 1 0 0 1.485.742.742 0 0 0 0-1.485ZM51.45 44.39l-3.084-1.896V28a.742.742 0 0 0-.401-.659l-11.474-5.927v-4.446a.742.742 0 1 0-1.484 0v4.446L23.534 27.34a.742.742 0 0 0-.402.66v14.494L20.05 44.39a.742.742 0 0 0 .778 1.265l3.05-1.875 11.472 7.36a.741.741 0 0 0 .802-.001l11.47-7.36 3.051 1.876a.738.738 0 0 0 1.02-.244.742.742 0 0 0-.243-1.02Zm-16.443 4.766-9.726-6.24 7.038-4.326a.742.742 0 0 0-.778-1.264l-6.924 4.256V29.42l10.39 6.225v13.51Zm.742-14.797L25.3 28.1l9.708-5.015v7.688a.742.742 0 0 0 1.485 0v-7.688l9.708 5.015-10.45 6.26Zm11.133 7.223-6.925-4.256a.742.742 0 0 0-.777 1.264l7.038 4.326-9.727 6.24v-13.51l10.391-6.226v12.162Z"/></g><defs><clipPath id="a"><path fill="#fff" transform="translate(16.75 13.256)" d="M0 0h38v38H0z"/></clipPath></defs></svg>
